X: 155
T: Soapsuds Over The Fence
B: canberra pickers and fiddlers
B: old time tunes update
B: tunes
M:C|
L:1/8
Q: 1/4=100
K:G
V:1 
+slide+[G,2G2]-|[G,G]AGE D2EG|GBgd edBA|GAGE DEGc|BGAG- G2G2-|
GAGE D2EG|GBgd edBA|GAGE DEGc|BGAG- G2||
|:g2-|gbad ed B2|abag edef|gagf edBc|dBAG- G2:|
% abcbook-tune_id 67a7d9ec0531b6bbe0d887d8
% abcbook-tune_composer_id 
% abcbook-link-0 https://www.youtube.com/watch?v=DO1pwEbdO_w
% abcbook-link-title-0 Soapsuds Over The Fence
% abcbook-boost 0
% abcbook-difficulty 0
% abcbook-tags old time tunes
% abcbook-tablature 
% abcbook-transpose -5
% abcbook-tuning ADAE
% abcbook-lastupdated 1739276366955
% abcbook-src-url 
% abcbook-soundfonts 
% abcbook-repeats 1
%%MIDI transpose -5


